X:1
T:Mononoke Hime
N:https://musescore.com/user/3882196/scores/6410216
C:Joe Hisaishi
M:4/4
R:
L:1/8
Q:1/4=90
K:F
"Dm" DAAG A3 A|"Dm/C" c2 G6|"Bbmaj7" DAAG A3 A|"Am7" c6 Ac|
"Gm" d2 d2 d3 d|"C/E" c2 G2 "F" A4|"Ebmaj7" GGGA G3 D|"Em7" A4 "A7" F4|
"Dm" DAAG A3 A|"Dm/C" c2 G6|"Bbmaj7" DAAG A3 A|
"Am7" c6 Ac|"Gm" d2 d2 d3 d|"C/E" c2 G2 "F" A4|"Gm" GGGA "C7" GDDF|"F(add9)" F8|]